X:1
T:Title
%%score { ( 1 3 ) | ( 2 4 ) }
L:1/8
Q:1/4=96
M:4/4
K:Eb
V:1 treble nm="Grand Piano"
V:3 treble 
V:2 bass 
V:4 bass 
V:1
 [GB][GB][_G=A][=GB] [Ge]2 [EG]2 | z4 c4 | [Dd][Dc][DB][CDA] [B,DG]2 [B,DF]2 | E2 _D2 =D2 A2 | %4
w: B.~D.~Ackley * * * * *||||
 [B,GB][B,GB][B,_G=A][B,=GB] [Ge]2 [EG]2 | [CG][CF][C=E][CF] c2- [Fc]2 | %6
w: ||
 [Dd][Dc][DB][CDA] [B,DG]2 [A,DF]2 | E6 z2 | GG[K:bass]B,,B,,[K:treble] GGGG | A2 G2 A4 | %10
w: ||||
 [DF][EG][FA][GB] [Ad]2 [DAc]2 | [GB]6 [B,EG][B,FA] | [GB][GB][_G=A][=GB] [Ge]2 [EG]2 | %13
w: |||
 [CG][CF][C=E][CF] c2- [Fc]2 | [Dd][Dc][DB][CDA] [B,DG]2 [A,DF]2 | [G,B,E]6 z2 |] %16
w: |||
V:2
 [E,B,][E,B,][E,B,][E,B,] [E,B,]2 [E,B,]2 | [A,,A,][A,,A,][A,,A,][A,,A,] [A,,A,]4 | %2
 [B,,F,][B,,F,][B,,F,]B,, B,,2 A,2 | G,2 =E,2 F,B,,C,D, | E,E,E,E, [E,B,]2 [E,B,]2 | %5
 [A,,A,][A,,A,][A,,A,][A,,A,] [A,,A,]4 | [B,,F,][B,,F,][B,,F,]B,, B,,2 B,,2 | [E,G,B,]6 z2 | %8
 [E,B,E][E,B,E] z2 [E,B,E][E,B,E][=E,B,_D][E,B,D] | [F,B,D]2 [=E,B,_D]2 [F,B,=D]4 | %10
 [B,,B,][B,,B,][B,,B,][B,,B,] [B,,B,]2 B,,2 | z z/ E/ D>C B,2 E,E, | %12
 [E,E][E,E][E,E][E,E] [E,B,]2 [E,B,]2 | [A,,A,][A,,A,][A,,A,][A,,A,] [A,,A,]4 | %14
 [B,,F,][B,,F,][B,,F,]B,, B,,2 B,,2 | E,6 z2 |] %16
V:3
 x8 | [CG][CF][C=E][CF] C2 F2 | x8 | [B,B]8 | x8 | z4 C2 z2 | x8 | x8 | %8
 x2[K:bass] x2[K:treble] x4 | x8 | x8 | E2 z2 z4 | x8 | z4 C2 z2 | x8 | x8 |] %16
V:4
 x8 | x8 | x8 | x8 | x8 | x8 | x8 | x8 | x8 | x8 | x8 | E,6 z2 | x8 | x8 | x8 | x8 |] %16

